src/assets/images/global.svg

<svg fill="none" height="30" viewBox="0 0 30 30" width="30" xmlns="http://www.w3.org/2000/svg"><path clip-rule="evenodd" d="m15 0c-3.9782 0-7.79356 1.58035-10.6066 4.3934-2.81305 2.81304-4.3934 6.6284-4.3934 10.6066s1.58035 7.7936 4.3934 10.6066c2.81304 2.813 6.6284 4.3934 10.6066 4.3934s7.7936-1.5804 10.6066-4.3934 4.3934-6.6284 4.3934-10.6066-1.5804-7.79356-4.3934-10.6066c-2.813-2.81305-6.6284-4.3934-10.6066-4.3934zm-12.606 11.808c-.4228 1.6715-.50905 3.4104-.25372 5.1155s.84714 3.3424 1.741 4.8168c.89387 1.4743 2.07195 2.7562 3.46573 3.7711s2.97549 1.7425 4.65299 2.1406v-1.238l-2-2v-3l-2-2v-2.414c0-.2652.10536-.5196.29289-.7071.18754-.1875.44189-.2929.70711-.2929h8c.7956 0 1.5587.3161 2.1213.8787s.8787 1.3257.8787 2.1213v1.024c1.02.146 1.83.954 1.976 1.976h3.98c1.0217-1.5994 1.681-3.403 1.9315-5.2843.2505-1.8812.0862-3.7945-.4813-5.6055-.5676-1.81103-1.5247-3.47585-2.8042-4.87761-1.2794-1.40176-2.8502-2.50647-4.602-3.23659v2.004c0 .79565-.3161 1.55871-.8787 2.12132s-1.3257.87868-2.1213.87868h-2c-.2652 0-.5196.10536-.7071.29289-.1875.18754-.2929.44189-.2929.70711 0 .79565-.3161 1.5587-.8787 2.1213s-1.3257.8787-2.1213.8787h-1v1.414l-.88.88c-.5625.5618-1.325.8774-2.12.8774s-1.5575-.3156-2.12-.8774l-2.488-2.488z" fill="#5a57c6" fill-rule="evenodd"/></svg>

<svg width="30" height="30" viewBox="0 0 30 30" fill="none" xmlns="http://www.w3.org/2000/svg">
<path fill-rule="evenodd" clip-rule="evenodd" d="M15 0C11.0218 0 7.20644 1.58035 4.3934 4.3934C1.58035 7.20644 0 11.0218 0 15C0 18.9782 1.58035 22.7936 4.3934 25.6066C7.20644 28.4196 11.0218 30 15 30C18.9782 30 22.7936 28.4196 25.6066 25.6066C28.4196 22.7936 30 18.9782 30 15C30 11.0218 28.4196 7.20644 25.6066 4.3934C22.7936 1.58035 18.9782 0 15 0V0ZM2.394 11.808C1.9712 13.4795 1.88495 15.2184 2.14028 16.9235C2.39561 18.6286 2.98742 20.2659 3.88128 21.7403C4.77515 23.2146 5.95323 24.4965 7.34701 25.5114C8.74079 26.5263 10.3225 27.2539 12 27.652V26.414L10 24.414V21.414L8 19.414V17C8 16.7348 8.10536 16.4804 8.29289 16.2929C8.48043 16.1054 8.73478 16 9 16H17C17.7956 16 18.5587 16.3161 19.1213 16.8787C19.6839 17.4413 20 18.2044 20 19V20.024C21.02 20.17 21.83 20.978 21.976 22H25.956C26.9777 20.4006 27.637 18.597 27.8875 16.7157C28.138 14.8345 27.9737 12.9212 27.4062 11.1102C26.8386 9.29917 25.8815 7.63435 24.602 6.23259C23.3226 4.83083 21.7518 3.72612 20 2.996V5C20 5.79565 19.6839 6.55871 19.1213 7.12132C18.5587 7.68393 17.7956 8 17 8H15C14.7348 8 14.4804 8.10536 14.2929 8.29289C14.1054 8.48043 14 8.73478 14 9C14 9.79565 13.6839 10.5587 13.1213 11.1213C12.5587 11.6839 11.7956 12 11 12H10V13.414L9.12 14.294C8.5575 14.8558 7.795 15.1714 7 15.1714C6.205 15.1714 5.4425 14.8558 4.88 14.294L2.392 11.806L2.394 11.808Z" fill="#5A57C6"/>
</svg>
